docs/assets/images/simple-illustration__twocards-horizontal.svg

<svg width="48" height="48" viewBox="0 0 48 48" fill="none" xmlns="http://www.w3.org/2000/svg">
<path d="M32.629 13.1929H7.08534C5.76618 13.1929 4.69678 14.2623 4.69678 15.5814V28.6709C4.69678 29.9901 5.76618 31.0595 7.08534 31.0595H32.629C33.9482 31.0595 35.0176 29.9901 35.0176 28.6709V15.5814C35.0176 14.2623 33.9482 13.1929 32.629 13.1929Z" fill="#E4BC07"/>
<path d="M32.2033 13.1135H7.42189C5.84485 13.1135 4.56641 14.392 4.56641 15.969V28.1151C4.56641 29.6922 5.84485 30.9706 7.42189 30.9706H32.2033C33.7803 30.9706 35.0587 29.6922 35.0587 28.1151V15.969C35.0587 14.392 33.7803 13.1135 32.2033 13.1135Z" stroke="#002140" stroke-width="0.705875" stroke-linecap="round" stroke-linejoin="round"/>
<path d="M34.8398 16.4741H4.61426V19.1454H34.8398V16.4741Z" fill="#002140" stroke="#002140" stroke-width="0.705875" stroke-linecap="round" stroke-linejoin="round"/>
<path d="M41.2513 17.4006L15.7079 17.521C14.3887 17.5272 13.3244 18.6016 13.3306 19.9208L13.3923 33.0101C13.3985 34.3293 14.4729 35.3936 15.7921 35.3874L41.3355 35.267C42.6546 35.2608 43.719 34.1864 43.7128 32.8672L43.6511 19.7779C43.6449 18.4587 42.5704 17.3944 41.2513 17.4006Z" fill="#FF7101"/>
<path d="M40.825 17.3202L16.0439 17.437C14.4669 17.4444 13.1945 18.7289 13.2019 20.3059L13.2592 32.4519C13.2666 34.0289 14.5511 35.3013 16.1281 35.2939L40.9092 35.1771C42.4862 35.1697 43.7586 33.8852 43.7512 32.3082L43.6939 20.1622C43.6865 18.5852 42.4021 17.3128 40.825 17.3202Z" stroke="#002140" stroke-width="0.705875" stroke-linecap="round" stroke-linejoin="round"/>
<path d="M16.1377 32.3806L20.2605 32.3616" stroke="#002140" stroke-width="0.705875" stroke-linecap="round" stroke-linejoin="round"/>
<path d="M22.1504 32.3521L26.2732 32.333" stroke="#002140" stroke-width="0.705875" stroke-linecap="round" stroke-linejoin="round"/>
<path d="M22.325 27.286L22.3091 23.9255C22.3091 23.7508 21.9756 23.6111 21.569 23.6111L18.8851 23.6238C18.6564 23.6238 18.4404 23.6714 18.3006 23.7477L17.389 24.2559C17.2874 24.313 17.2334 24.3797 17.2334 24.4496L17.2461 26.8922C17.2461 26.9557 17.2937 27.0192 17.3795 27.0732L18.0656 27.4925C18.2053 27.5783 18.434 27.6259 18.6754 27.6259L21.5913 27.6069C21.9978 27.6069 22.3282 27.4607 22.325 27.286Z" fill="#FBCCFF"/>
<path d="M38.6456 23.2637L29.6917 23.3059C28.5708 23.3111 27.6664 24.2241 27.6717 25.3451C27.677 26.466 28.5899 27.3704 29.7109 27.3651L38.6647 27.3229C39.7856 27.3176 40.6901 26.4047 40.6848 25.2837C40.6795 24.1628 39.7665 23.2584 38.6456 23.2637Z" fill="#002140"/>
</svg>

<svg xmlns="http://www.w3.org/2000/svg" width="48" height="48" fill="none" viewBox="0 0 48 48"><path fill="#e4bc07" d="M32.629 13.193H7.085a2.39 2.39 0 0 0-2.388 2.388v13.09c0 1.32 1.07 2.389 2.388 2.389H32.63a2.39 2.39 0 0 0 2.389-2.39V15.582a2.39 2.39 0 0 0-2.389-2.388"/><path stroke="#002140" stroke-linecap="round" stroke-linejoin="round" stroke-width=".706" d="M32.203 13.114H7.422a2.856 2.856 0 0 0-2.856 2.855v12.146a2.855 2.855 0 0 0 2.856 2.856h24.781a2.855 2.855 0 0 0 2.856-2.856V15.97a2.855 2.855 0 0 0-2.856-2.855"/><path fill="#002140" stroke="#002140" stroke-linecap="round" stroke-linejoin="round" stroke-width=".706" d="M34.84 16.474H4.614v2.671H34.84z"/><path fill="#ff7101" d="m41.251 17.4-25.543.121a2.39 2.39 0 0 0-2.377 2.4l.061 13.09a2.39 2.39 0 0 0 2.4 2.376l25.544-.12a2.39 2.39 0 0 0 2.377-2.4l-.062-13.09a2.39 2.39 0 0 0-2.4-2.376"/><path stroke="#002140" stroke-linecap="round" stroke-linejoin="round" stroke-width=".706" d="m40.825 17.32-24.781.117a2.856 2.856 0 0 0-2.842 2.869l.057 12.146a2.856 2.856 0 0 0 2.87 2.842l24.78-.117a2.856 2.856 0 0 0 2.842-2.869l-.057-12.146a2.855 2.855 0 0 0-2.869-2.842M16.138 32.38l4.122-.018m1.89-.01 4.123-.019"/><path fill="#fbccff" d="m22.325 27.286-.016-3.36c0-.175-.333-.315-.74-.315l-2.684.013c-.229 0-.445.047-.584.124l-.912.508q-.155.087-.156.194l.013 2.442c0 .064.048.127.134.181l.686.42c.14.085.368.133.61.133l2.915-.02c.407 0 .737-.145.734-.32"/><path fill="#002140" d="m38.646 23.264-8.954.042a2.03 2.03 0 1 0 .019 4.06l8.954-.043a2.03 2.03 0 1 0-.02-4.06"/></svg>
